src/helpers/heroicons/outline/globe-americas.svg

<svg width="24" height="24" viewBox="0 0 24 24" fill="none" xmlns="http://www.w3.org/2000/svg">
<path d="M6.11507 5.19043L6.4339 7.10337C6.63948 8.33689 7.22535 9.47535 8.10962 10.3596L9.75 12L9.36262 12.7747C9.14607 13.2079 9.23096 13.731 9.57336 14.0734L10.9205 15.4205C11.1315 15.6315 11.25 15.9176 11.25 16.216V17.3047C11.25 17.7308 11.4908 18.1204 11.8719 18.3109L12.0247 18.3874C12.4579 18.6039 12.981 18.519 13.3234 18.1766L14.0461 17.4539C15.161 16.339 15.952 14.9419 16.3344 13.4122C16.4357 13.0073 16.2962 12.5802 15.9756 12.313L14.6463 11.2053C14.3947 10.9956 14.0642 10.906 13.7411 10.9598L12.5711 11.1548C12.2127 11.2146 11.8475 11.0975 11.5906 10.8406L11.2955 10.5455C10.8562 10.1062 10.8562 9.39384 11.2955 8.9545L11.4266 8.82336C11.769 8.48095 12.2921 8.39607 12.7253 8.61263L13.3292 8.91459C13.4415 8.97076 13.5654 9 13.691 9C14.2924 9 14.6835 8.3671 14.4146 7.82918L14.25 7.5L15.5057 6.66289C16.1573 6.22849 16.6842 5.63157 17.0344 4.93112L17.1803 4.63942M6.11507 5.19043C4.20716 6.84073 3 9.27939 3 12C3 16.9706 7.02944 21 12 21C16.9706 21 21 16.9706 21 12C21 8.95801 19.4908 6.26851 17.1803 4.63942M6.11507 5.19043C7.69292 3.82562 9.75004 3 12 3C13.9286 3 15.7155 3.6066 17.1803 4.63942"  stroke-width="1.5" stroke-linecap="round" stroke-linejoin="round"/>
</svg>

<svg xmlns="http://www.w3.org/2000/svg" fill="none" viewBox="0 0 24 24" stroke-width="1.5" stroke="currentColor" aria-hidden="true" data-slot="icon">
  <path stroke-linecap="round" stroke-linejoin="round" d="m6.115 5.19.319 1.913A6 6 0 0 0 8.11 10.36L9.75 12l-.387.775c-.217.433-.132.956.21 1.298l1.348 1.348c.21.21.329.497.329.795v1.089c0 .426.24.815.622 1.006l.153.076c.433.217.956.132 1.298-.21l.723-.723a8.7 8.7 0 0 0 2.288-4.042 1.087 1.087 0 0 0-.358-1.099l-1.33-1.108c-.251-.21-.582-.299-.905-.245l-1.17.195a1.125 1.125 0 0 1-.98-.314l-.295-.295a1.125 1.125 0 0 1 0-1.591l.13-.132a1.125 1.125 0 0 1 1.3-.21l.603.302a.809.809 0 0 0 1.086-1.086L14.25 7.5l1.256-.837a4.5 4.5 0 0 0 1.528-1.732l.146-.292M6.115 5.19A9 9 0 1 0 17.18 4.64M6.115 5.19A8.965 8.965 0 0 1 12 3c1.929 0 3.716.607 5.18 1.64"/>
</svg>
